assets/Backpack/Flat/backpack_flat.svg

<svg width="32" height="32" viewBox="0 0 32 32" fill="none" xmlns="http://www.w3.org/2000/svg">
<path d="M16.0899 3.59C14.2011 3.59 12.6699 5.12118 12.6699 7.01C12.6699 8.89881 14.2011 10.43 16.0899 10.43C17.9787 10.43 19.5099 8.89881 19.5099 7.01C19.5099 5.12118 17.9787 3.59 16.0899 3.59ZM11.1699 7.01C11.1699 4.29276 13.3727 2.09 16.0899 2.09C18.8072 2.09 21.0099 4.29276 21.0099 7.01C21.0099 9.72724 18.8072 11.93 16.0899 11.93C13.3727 11.93 11.1699 9.72724 11.1699 7.01Z" fill="#CA0B4A"/>
<path d="M23.35 30H8.74C6.67 30 5 28.32 5 26.26V16.11C5 10.01 9.95 5.06 16.05 5.06C22.15 5.06 27.1 10.01 27.1 16.11V26.26C27.09 28.32 25.42 30 23.35 30Z" fill="#F8312F"/>
<path d="M8 25.57C8 20.79 11.5792 16.92 16 16.92C20.4208 16.92 24 20.79 24 25.57V24.7C24 19.92 20.4208 16.05 16 16.05C11.5792 16.05 8 19.92 8 24.7V25.57Z" fill="#CA0B4A"/>
<path d="M8.36589 11.5783C8.25899 11.8323 7.96651 11.952 7.71209 11.8456C7.45733 11.7391 7.3372 11.4462 7.44376 11.1914L7.44426 11.1902L7.44495 11.1886L7.44691 11.184L7.45317 11.1695C7.45839 11.1576 7.46571 11.1412 7.4752 11.1206C7.49419 11.0794 7.52188 11.0212 7.5588 10.9486C7.6326 10.8034 7.74349 10.5999 7.89574 10.3576C8.19988 9.87356 8.6714 9.23083 9.34518 8.58817C10.6993 7.29658 12.8617 6.01562 16.0775 6.01562C19.2945 6.01562 21.4135 7.29769 22.7239 8.59461C23.3753 9.23928 23.8237 9.88397 24.1103 10.3694C24.2537 10.6125 24.3572 10.8166 24.4258 10.9624C24.4601 11.0353 24.4857 11.0937 24.5032 11.1352C24.5119 11.1559 24.5187 11.1724 24.5235 11.1844L24.5293 11.199L24.5311 11.2037L24.5317 11.2054L24.5322 11.2066C24.6303 11.4648 24.5007 11.7535 24.2426 11.8517C23.9848 11.9497 23.6964 11.8205 23.5979 11.563L23.5975 11.5621L23.5952 11.5563L23.5876 11.5376L23.5819 11.5242C23.5693 11.4943 23.5492 11.4481 23.5208 11.3879C23.4642 11.2674 23.3751 11.0912 23.2491 10.8778C22.9968 10.4504 22.5989 9.87786 22.0204 9.30536C20.8712 8.16792 18.9965 7.01562 16.0775 7.01562C13.1574 7.01562 11.2335 8.16903 10.0354 9.31179C9.43304 9.88631 9.01193 10.4608 8.74247 10.8896C8.60792 11.1038 8.51178 11.2806 8.45024 11.4017C8.41949 11.4622 8.39743 11.5087 8.38359 11.5387C8.37667 11.5538 8.37181 11.5647 8.36895 11.5712L8.3663 11.5773L8.36589 11.5783Z" fill="#FCD53F"/>
<path d="M17.85 12.09H14.25C13.838 12.09 13.4751 11.8858 13.2568 11.5727C13.1201 11.3767 13.04 11.138 13.04 10.88V10.28C13.04 9.61001 13.58 9.07001 14.25 9.07001H17.84C18.51 9.07001 19.05 9.61001 19.05 10.28V10.88C19.0539 11.1355 18.9777 11.372 18.8449 11.5669C18.6294 11.8833 18.2646 12.09 17.85 12.09Z" fill="#FCD53F"/>
<path d="M8.03853 23.59C8.42853 23.59 8.75853 23.88 8.80853 24.26L9.07853 26.12C9.13853 26.58 8.77853 27 8.30853 27H7.77853C7.30853 27 6.93853 26.59 7.00853 26.12L7.26853 24.26C7.32853 23.87 7.64853 23.59 8.03853 23.59ZM7.60853 24.36C7.60853 24.6 7.79853 24.79 8.03853 24.79C8.27853 24.79 8.46853 24.6 8.46853 24.36C8.46853 24.12 8.27853 23.93 8.03853 23.93C7.79853 23.93 7.60853 24.12 7.60853 24.36Z" fill="#FCD53F"/>
</svg>

<svg xmlns="http://www.w3.org/2000/svg" width="32" height="32" fill="none"><path fill="#CA0B4A" d="M16.09 3.59a3.42 3.42 0 1 0 0 6.84 3.42 3.42 0 0 0 0-6.84Zm-4.92 3.42a4.92 4.92 0 1 1 9.84 0 4.92 4.92 0 0 1-9.84 0Z"/><path fill="#F8312F" d="M23.35 30H8.74A3.74 3.74 0 0 1 5 26.26V16.11c0-6.1 4.95-11.05 11.05-11.05 6.1 0 11.05 4.95 11.05 11.05v10.15A3.756 3.756 0 0 1 23.35 30Z"/><path fill="#CA0B4A" d="M8 25.57c0-4.78 3.58-8.65 8-8.65s8 3.87 8 8.65v-.87c0-4.78-3.58-8.65-8-8.65s-8 3.87-8 8.65v.87Z"/><path fill="#FCD53F" d="M8.366 11.578a.5.5 0 0 1-.922-.387l.001-.002.002-.005.006-.014a2.945 2.945 0 0 1 .106-.221c.074-.146.184-.35.337-.591a9.311 9.311 0 0 1 1.45-1.77c1.353-1.291 3.516-2.572 6.732-2.572s5.335 1.282 6.646 2.579c.651.644 1.1 1.289 1.386 1.774a7.265 7.265 0 0 1 .393.766c.009.02.016.037.02.05l.006.014.002.005v.001l.001.002a.5.5 0 0 1-.934.356l-.003-.007-.007-.018-.006-.014a6.197 6.197 0 0 0-.333-.646c-.252-.428-.65-1-1.229-1.573-1.149-1.137-3.023-2.29-5.942-2.29-2.92 0-4.845 1.154-6.043 2.297a8.313 8.313 0 0 0-1.293 1.578 6.565 6.565 0 0 0-.373.681l-.003.006v.001Z"/><path fill="#FCD53F" d="M17.85 12.09h-3.6a1.207 1.207 0 0 1-1.21-1.21v-.6c0-.67.54-1.21 1.21-1.21h3.59c.67 0 1.21.54 1.21 1.21v.6c.004.255-.072.492-.205.687a1.2 1.2 0 0 1-.995.523ZM8.039 23.59c.39 0 .72.29.77.67l.27 1.86c.06.46-.3.88-.77.88h-.53a.77.77 0 0 1-.77-.88l.26-1.86c.06-.39.38-.67.77-.67Zm-.43.77c0 .24.19.43.43.43s.43-.19.43-.43-.19-.43-.43-.43-.43.19-.43.43Z"/></svg>
